X: 270
T: Tom Nangle's
C: BB 10/08
N: 202263
M: 6/8
L: 1/8
R: jig
Q: 1/4=170
K: D
c|"D" dcd AFA | "G" BAB gfe | "Bm"fdB AFA | "D"DFA "Bm"B2c |
"D" dcd AFA | "G" Bcd efg | "D" faf "A" ege | "D" fdc d2 :|
e | "D"a^ga "Bm"fdB | "G" gfg "A" ecA |"D" fga "Em" bge|"D"fdf  "A"e2e|
"D" dcd AFA | "G" BAB gfe |"Bm" fdB FBd | "A"cec "D" d2 :|
%%%%%%%%%%%%%%%%%%%%%%%%%%%%%%%
